X: 19786
T: Jer Mac's
R: polka
M: 2/4
K: Amajor
|:ea ca|cA AF/A/|B/c/B/A/ c/B/A/G/|AF FE|
ea ca|cA AF/A/|B/c/B/A/ c/B/A/G/|1 A2 Ac:|2 A2 AB||
|:cA AF/A/|BF FA|B/c/B/A/ c/B/A/G/|AF FE|
cA AF/A/|BF FA|B/c/B/A/ c/B/A/G/|1 A2 AB:|2 A2 Ac||

